public/avatar/item2/50.svg

<svg xmlns:xlink="http://www.w3.org/1999/xlink" height="99.2" width="82.2" xmlns="http://www.w3.org/2000/svg"><g transform="translate(31 46.75)"><use height="3.55" transform="matrix(1.2908 0 0 1.0704 -2.15 25.2)" width="3.4" xlink:href="#a"/><use height="3.55" transform="translate(12.4 19.75)" width="3.4" xlink:href="#a"/><use height="3.55" transform="translate(7.95 22.25)" width="3.4" xlink:href="#a"/><use height="3.55" transform="translate(3.35 24.5)" width="3.4" xlink:href="#a"/><use height="3.55" transform="translate(-6.8 24.7)" width="3.4" xlink:href="#a"/><use height="3.55" transform="translate(-11.55 22.45)" width="3.4" xlink:href="#a"/><use height="3.55" transform="translate(-16.05 19.75)" width="3.4" xlink:href="#a"/><use height="17.4" transform="translate(-.25 21.35)" width="17.3" xlink:href="#b"/><use height="17.4" transform="matrix(-1 0 0 1 .05 21.35)" width="17.3" xlink:href="#b"/></g><defs><g id="e" fill-rule="evenodd"><path d="M3.4 1.8Q3.4 0 1.7 0T0 1.8q0 1.75 1.7 1.75T3.4 1.8" fill="#333"/><path d="M3.1 1.6Q3.1.25 1.75.25T.4 1.6q0 1.35 1.35 1.35T3.1 1.6" fill="#ff3d2b"/><path d="M2.8.75Q1.9 3.15.55 1.8q.7 1.6 1.85.75.6-.35.55-1.1L2.8.75" fill="#892116"/><path d="M2.55.65 1.75.4Q.9.4.65 1.5q.85-1 1.9-.85" fill="#fcfeff"/></g><g id="b" transform="translate(-17.05)"><use height="17.4" transform="translate(17.05)" width="17.3" xlink:href="#c"/><use height="8.9" transform="translate(17.4 8)" width="3.9" xlink:href="#d"/><use height="8.9" transform="rotate(-8.307 61.76 -135.067) scale(.9149)" width="3.9" xlink:href="#d"/><use height="8.9" transform="matrix(.9006 -.1609 .1609 .9006 22.8 6.45)" width="3.9" xlink:href="#d"/><use height="8.9" transform="matrix(.8027 -.1722 .1722 .8027 25.6 5.4)" width="3.9" xlink:href="#d"/><use height="8.9" transform="matrix(.6843 -.1501 .1572 .7165 28 4.25)" width="3.9" xlink:href="#d"/></g><g id="c" fill-rule="evenodd"><path d="M32.7 5.6q2.35 2.05.9 3.25-.95.7-1.55-.3.5 1.1-.5 1.65-1.9.95-2.05-2.45l-.6-.6q-.55-.25-.15 1.45 2.5 2.6 1.05 3.7-2.55 1.2-2.4-2.65l-.75-.85q-.7-.5-.3 1.25 2.55 3.35.75 4.05-1.55.9-2.05-.4.25 1.25-.85 1.7-2.55.9-2.1-3.5l-.7-.95q-.75-.5-.8 1.6 2.25 3.4 0 4.8-3.5.4-1.75-4.5L17.8 11.5l-.45-.4v-4q6.8-.35 16.3-7.1l.5 3.3q.9 4.15-1.85 1l.4 1.3m-1.35.95-.5-.55q-.4-.25-.05.95l1.1 1.3q-.35-.6-.55-1.7m-7.25 3.4q-.65-.5-.45 1.2l1.25 2.1q-.2-.9-.1-2.45l-.7-.85" fill="#333" transform="translate(-17.05)"/><path d="M33.8 3q-8.35 6.6-16.7 7.3V7.8q11.15-1.9 16.55-6.75L33.8 3" fill="#ffff1c" transform="translate(-17.05)"/><path d="m33.5.4.2.7q-6.4 5-16.55 7.4l-.1-.05v-.9Q23.5 7.4 33.5.4" fill="#00a0fa" transform="translate(-17.05)"/><path d="M33.75 2.75q1.5 4.7-1.75.95l1.75-.95m-1.65 1.3q1.5 4.75-1.75.95l1.75-.95" fill="#ffff1c" transform="translate(-17.05)"/><path d="m32.3 5.7 1 .95q.85 1.05.35 1.8-1.7 1.05-2-2.45l.65-.3" fill="#ffff1c" transform="translate(-17.05)"/><path d="m33.85 2.95-1.35.8-.4-1.05 1.4-1.1q.4.25.35 1.35m-2-.05.45.95-1.45 1.05-.6-1.05 1.6-.95" fill="#34f13f" transform="translate(-17.05)"/><path d="M33.6 3.6q.5 2.05-.7.35l.7-.35M32 4.7q.4 2.15-.85.5l.85-.5" fill="#b69f17" transform="translate(-17.05)"/><path d="m32.45 6.3.7.8q.65.85.35 1.2-1.05.5-1.05-2" fill="#00a0fa" transform="translate(-17.05)"/><path d="m32.8 2.2.7-.55.35 1.35-1.25.7-.1.05q1.05-.9.3-1.55m-.95.75.4.8L31.1 4.8q.7-.75 0-1.4l.75-.45" fill="#1d8723" transform="translate(-17.05)"/><path d="m32.8 2.35-.2 1.1q-.35-.5-.1-.85l.3-.25M31 3.55l-.05 1.1q-.55-.5-.3-.85l.35-.25" fill="#fff" transform="translate(-17.05)"/><path d="m33.25 3.85.35-.1q.25.85 0 .85-.1-.7-.35-.75M31.3 5.3l.65-.4.1-.05q.1 1.45-.35.85.25-.5-.4-.4" fill="#6d5b06" transform="translate(-17.05)"/><path d="M32.45 6.35q1.7 1.9.6 1.8l-.6-1.8" fill="#005ad2" transform="translate(-17.05)"/><path d="M33.35 8.25q-.6.25-.8-1.35.15.85.7 1.15.3.1.1.2" fill="#fff" transform="translate(-17.05)"/></g><g id="f" fill-rule="evenodd"><path d="M3.2 1.55q.9 7.7-3.15.8l3.15-.8" fill="#ffff1c"/><path d="M2.8 4.45q2.05 3.15.35 4.4-2.75.6-1.4-4.3l1.05-.1" fill="#ffff1c"/><path d="m2.95 0 .3 1.6-2.85.5L0 .8Q2.2.5 2.95 0" fill="#34f13f"/><path d="M2.8 2.05q.25 4.7-2.05.3l2.05-.3" fill="#b69f17"/><path d="M2.45 5q1.95 3 .7 3.55Q1 8.6 2.45 5" fill="#00a0fa"/><path d="m3 .1.2 1.45L.85 2Q2.1 1.35 1.2.6L3 .1" fill="#1d8723"/><path d="M1.1.7.5 1.9Q.15 1.1.6.8l.5-.1" fill="#fff"/><path d="M1.95 3.5q.5-1-1-1.05l1.75-.2-.75 1.25" fill="#6d5b06"/><path d="M2.4 5.05q2.1 3.75.3 3.25l-.3-3.25" fill="#005ad2"/><path d="M2.4 5.55q-.45 2.6.85 2.75-1.2.4-1.15-1.3l.3-1.45" fill="#fff"/></g><use height="3.55" width="3.4" xlink:href="#e" id="a"/><use height="8.9" width="3.9" xlink:href="#f" id="d"/></defs></svg>

<?xml version="1.0" encoding="UTF-8" standalone="no"?>
<svg xmlns:xlink="http://www.w3.org/1999/xlink" height="99.2px" width="82.2px" xmlns="http://www.w3.org/2000/svg">
  <g transform="matrix(1.0, 0.0, 0.0, 1.0, 31.0, 46.75)">
    <use height="3.55" transform="matrix(1.2908, 0.0, 0.0, 1.0704, -2.15, 25.2)" width="3.4" xlink:href="#sprite0"/>
    <use height="3.55" transform="matrix(1.0, 0.0, 0.0, 1.0, 12.4, 19.75)" width="3.4" xlink:href="#sprite0"/>
    <use height="3.55" transform="matrix(1.0, 0.0, 0.0, 1.0, 7.95, 22.25)" width="3.4" xlink:href="#sprite0"/>
    <use height="3.55" transform="matrix(1.0, 0.0, 0.0, 1.0, 3.35, 24.5)" width="3.4" xlink:href="#sprite0"/>
    <use height="3.55" transform="matrix(1.0, 0.0, 0.0, 1.0, -6.8, 24.7)" width="3.4" xlink:href="#sprite0"/>
    <use height="3.55" transform="matrix(1.0, 0.0, 0.0, 1.0, -11.55, 22.45)" width="3.4" xlink:href="#sprite0"/>
    <use height="3.55" transform="matrix(1.0, 0.0, 0.0, 1.0, -16.05, 19.75)" width="3.4" xlink:href="#sprite0"/>
    <use height="17.4" transform="matrix(1.0, 0.0, 0.0, 1.0, -0.25, 21.35)" width="17.3" xlink:href="#sprite1"/>
    <use height="17.4" transform="matrix(-1.0, 0.0, 0.0, 1.0, 0.05, 21.35)" width="17.3" xlink:href="#sprite1"/>
  </g>
  <defs>
    <g id="sprite0" transform="matrix(1.0, 0.0, 0.0, 1.0, 0.0, 0.0)">
      <use height="3.55" transform="matrix(1.0, 0.0, 0.0, 1.0, 0.0, 0.0)" width="3.4" xlink:href="#shape0"/>
    </g>
    <g id="shape0" transform="matrix(1.0, 0.0, 0.0, 1.0, 0.0, 0.0)">
      <path d="M3.4 1.8 Q3.4 0.0 1.7 0.0 0.0 0.0 0.0 1.8 0.0 3.55 1.7 3.55 3.4 3.55 3.4 1.8" fill="#333333" fill-rule="evenodd" stroke="none"/>
      <path d="M3.1 1.6 Q3.1 0.25 1.75 0.25 0.4 0.25 0.4 1.6 0.4 2.95 1.75 2.95 3.1 2.95 3.1 1.6" fill="#ff3d2b" fill-rule="evenodd" stroke="none"/>
      <path d="M2.8 0.75 Q1.9 3.15 0.55 1.8 1.25 3.4 2.4 2.55 3.0 2.2 2.95 1.45 L2.8 0.75" fill="#892116" fill-rule="evenodd" stroke="none"/>
      <path d="M2.55 0.65 L1.75 0.4 Q0.9 0.4 0.65 1.5 1.5 0.5 2.55 0.65" fill="#fcfeff" fill-rule="evenodd" stroke="none"/>
    </g>
    <g id="sprite1" transform="matrix(1.0, 0.0, 0.0, 1.0, -17.05, 0.0)">
      <use height="17.4" transform="matrix(1.0, 0.0, 0.0, 1.0, 17.05, 0.0)" width="17.3" xlink:href="#shape1"/>
      <use height="8.9" transform="matrix(1.0, 0.0, 0.0, 1.0, 17.4, 8.0)" width="3.9" xlink:href="#sprite2"/>
      <use height="8.9" transform="matrix(0.9053, -0.1321, 0.1321, 0.9053, 20.15, 7.5)" width="3.9" xlink:href="#sprite2"/>
      <use height="8.9" transform="matrix(0.9006, -0.1609, 0.1609, 0.9006, 22.8, 6.45)" width="3.9" xlink:href="#sprite2"/>
      <use height="8.9" transform="matrix(0.8027, -0.1722, 0.1722, 0.8027, 25.6, 5.4)" width="3.9" xlink:href="#sprite2"/>
      <use height="8.9" transform="matrix(0.6843, -0.1501, 0.1572, 0.7165, 28.0, 4.25)" width="3.9" xlink:href="#sprite2"/>
    </g>
    <g id="shape1" transform="matrix(1.0, 0.0, 0.0, 1.0, -17.05, 0.0)">
      <path d="M32.7 5.6 Q35.05 7.65 33.6 8.85 32.65 9.55 32.05 8.55 32.55 9.65 31.55 10.2 29.65 11.15 29.5 7.75 L28.9 7.15 Q28.35 6.9 28.75 8.6 31.25 11.2 29.8 12.3 27.25 13.5 27.4 9.65 L26.65 8.8 Q25.95 8.3 26.35 10.05 28.9 13.4 27.1 14.1 25.55 15.0 25.05 13.7 25.3 14.95 24.2 15.4 21.65 16.3 22.1 11.9 L21.4 10.95 Q20.65 10.45 20.6 12.55 22.85 15.95 20.6 17.35 17.1 17.75 18.85 12.85 L17.8 11.5 17.35 11.1 17.35 7.1 Q24.15 6.75 33.65 0.0 L34.15 3.3 Q35.05 7.45 32.3 4.3 L32.7 5.6 M31.35 6.55 L30.85 6.0 Q30.45 5.75 30.8 6.95 L31.9 8.25 Q31.55 7.65 31.35 6.55 M24.1 9.95 Q23.45 9.45 23.65 11.15 L24.9 13.25 Q24.7 12.35 24.8 10.8 L24.1 9.95" fill="#333333" fill-rule="evenodd" stroke="none"/>
      <path d="M33.8 3.0 Q25.45 9.6 17.1 10.3 L17.1 7.8 Q28.25 5.9 33.65 1.05 L33.8 3.0" fill="#ffff1c" fill-rule="evenodd" stroke="none"/>
      <path d="M33.5 0.4 L33.7 1.1 Q27.3 6.1 17.15 8.5 L17.05 8.45 17.05 7.55 Q23.5 7.4 33.5 0.4" fill="#00a0fa" fill-rule="evenodd" stroke="none"/>
      <path d="M33.75 2.75 Q35.25 7.45 32.0 3.7 L33.75 2.75" fill="#ffff1c" fill-rule="evenodd" stroke="none"/>
      <path d="M32.1 4.05 Q33.6 8.8 30.35 5.0 L32.1 4.05" fill="#ffff1c" fill-rule="evenodd" stroke="none"/>
      <path d="M32.3 5.7 L33.3 6.65 Q34.15 7.7 33.65 8.45 31.95 9.5 31.65 6.0 L32.3 5.7" fill="#ffff1c" fill-rule="evenodd" stroke="none"/>
      <path d="M33.85 2.95 L32.5 3.75 32.1 2.7 33.5 1.6 Q33.9 1.85 33.85 2.95" fill="#34f13f" fill-rule="evenodd" stroke="none"/>
      <path d="M31.85 2.9 L32.3 3.85 30.85 4.9 30.25 3.85 31.85 2.9" fill="#34f13f" fill-rule="evenodd" stroke="none"/>
      <path d="M33.6 3.6 Q34.1 5.65 32.9 3.95 L33.6 3.6" fill="#b69f17" fill-rule="evenodd" stroke="none"/>
      <path d="M32.0 4.7 Q32.4 6.85 31.15 5.2 L32.0 4.7" fill="#b69f17" fill-rule="evenodd" stroke="none"/>
      <path d="M32.45 6.3 L33.15 7.1 Q33.8 7.95 33.5 8.3 32.45 8.8 32.45 6.3" fill="#00a0fa" fill-rule="evenodd" stroke="none"/>
      <path d="M32.8 2.2 L33.5 1.65 33.85 3.0 32.6 3.7 32.5 3.75 Q33.55 2.85 32.8 2.2" fill="#1d8723" fill-rule="evenodd" stroke="none"/>
      <path d="M31.85 2.95 L32.25 3.75 31.1 4.8 Q31.8 4.05 31.1 3.4 L31.85 2.95" fill="#1d8723" fill-rule="evenodd" stroke="none"/>
      <path d="M32.8 2.35 L32.6 3.45 Q32.25 2.95 32.5 2.6 L32.8 2.35" fill="#ffffff" fill-rule="evenodd" stroke="none"/>
      <path d="M31.0 3.55 L30.95 4.65 Q30.4 4.15 30.65 3.8 L31.0 3.55" fill="#ffffff" fill-rule="evenodd" stroke="none"/>
      <path d="M33.25 3.85 L33.6 3.75 Q33.85 4.6 33.6 4.6 33.5 3.9 33.25 3.85" fill="#6d5b06" fill-rule="evenodd" stroke="none"/>
      <path d="M31.3 5.3 L31.95 4.9 32.05 4.85 Q32.15 6.3 31.7 5.7 31.95 5.2 31.3 5.3" fill="#6d5b06" fill-rule="evenodd" stroke="none"/>
      <path d="M32.45 6.35 Q34.15 8.25 33.05 8.15 L32.45 6.35" fill="#005ad2" fill-rule="evenodd" stroke="none"/>
      <path d="M33.35 8.25 Q32.75 8.5 32.55 6.9 32.7 7.75 33.25 8.05 33.55 8.15 33.35 8.25" fill="#ffffff" fill-rule="evenodd" stroke="none"/>
    </g>
    <g id="sprite2" transform="matrix(1.0, 0.0, 0.0, 1.0, 0.0, 0.0)">
      <use height="8.9" transform="matrix(1.0, 0.0, 0.0, 1.0, 0.0, 0.0)" width="3.9" xlink:href="#shape2"/>
    </g>
    <g id="shape2" transform="matrix(1.0, 0.0, 0.0, 1.0, 0.0, 0.0)">
      <path d="M3.2 1.55 Q4.1 9.25 0.05 2.35 L3.2 1.55" fill="#ffff1c" fill-rule="evenodd" stroke="none"/>
      <path d="M2.8 4.45 Q4.85 7.6 3.15 8.85 0.4 9.45 1.75 4.55 L2.8 4.45" fill="#ffff1c" fill-rule="evenodd" stroke="none"/>
      <path d="M2.95 0.0 L3.25 1.6 0.4 2.1 0.0 0.8 Q2.2 0.5 2.95 0.0" fill="#34f13f" fill-rule="evenodd" stroke="none"/>
      <path d="M2.8 2.05 Q3.05 6.75 0.75 2.35 L2.8 2.05" fill="#b69f17" fill-rule="evenodd" stroke="none"/>
      <path d="M2.45 5.0 Q4.4 8.0 3.15 8.55 1.0 8.6 2.45 5.0" fill="#00a0fa" fill-rule="evenodd" stroke="none"/>
      <path d="M3.0 0.1 L3.2 1.55 0.85 2.0 Q2.1 1.35 1.2 0.6 L3.0 0.1" fill="#1d8723" fill-rule="evenodd" stroke="none"/>
      <path d="M1.1 0.7 L0.5 1.9 Q0.15 1.1 0.6 0.8 L1.1 0.7" fill="#ffffff" fill-rule="evenodd" stroke="none"/>
      <path d="M1.95 3.5 Q2.45 2.5 0.95 2.45 L2.7 2.25 1.95 3.5" fill="#6d5b06" fill-rule="evenodd" stroke="none"/>
      <path d="M2.4 5.05 Q4.5 8.8 2.7 8.3 L2.4 5.05" fill="#005ad2" fill-rule="evenodd" stroke="none"/>
      <path d="M2.4 5.55 Q1.95 8.15 3.25 8.3 2.05 8.7 2.1 7.0 L2.4 5.55" fill="#ffffff" fill-rule="evenodd" stroke="none"/>
    </g>
  </defs>
</svg>
